Simply-Cyan-Circles/scalable/categories/applications-mathematics.svg

<svg xmlns="http://www.w3.org/2000/svg" width="48" height="48" viewBox="0 0 12.7 12.7"><path d="M6.34.07a6.29 6.29 0 0 0-6.29 6.3 6.29 6.29 0 0 0 6.3 6.28 6.29 6.29 0 0 0 6.28-6.29A6.29 6.29 0 0 0 6.34.07zm-.01.94a5.4 5.4 0 0 1 4.36 2.23h-.56A1.18 1.14 0 0 0 9 2.4a1.18 1.14 0 0 0-1.14.83H4.84A1.18 1.14 0 0 0 3.7 2.4a1.18 1.14 0 0 0-1.13.83h-.6A5.4 5.4 0 0 1 6.32 1zM1.54 3.9h1.04a1.18 1.14 0 0 0 1.12.8 1.18 1.14 0 0 0 1.13-.8h3.04A1.18 1.14 0 0 0 9 4.7a1.18 1.14 0 0 0 1.12-.8h.99a5.4 5.4 0 0 1 .61 2.14h-1.58A1.18 1.14 0 0 0 9 5.21a1.18 1.14 0 0 0-1.14.84h-.37a1.18 1.14 0 0 0-1.14-.84 1.18 1.14 0 0 0-1.14.84H.94a5.4 5.4 0 0 1 .6-2.15zm-.6 2.8h4.3a1.18 1.14 0 0 0 1.11.78 1.18 1.14 0 0 0 1.12-.77h.4A1.18 1.14 0 0 0 9 7.49a1.18 1.14 0 0 0 1.11-.77h1.6a5.4 5.4 0 0 1-.5 2.02H7.47a1.18 1.14 0 0 0-1.13-.81 1.18 1.14 0 0 0-1.13.8h-.39a1.18 1.14 0 0 0-1.13-.8 1.18 1.14 0 0 0-1.13.8H1.45a5.4 5.4 0 0 1-.52-2.01zm.88 2.7h.76a1.18 1.14 0 0 0 1.12.8 1.18 1.14 0 0 0 1.13-.8h.4a1.18 1.14 0 0 0 1.12.8 1.18 1.14 0 0 0 1.13-.8h3.35a5.4 5.4 0 0 1-4.5 2.41 5.4 5.4 0 0 1-4.5-2.42z" fill="#5beedc"/></svg>

<?xml version="1.0" encoding="UTF-8" standalone="no"?>
<svg
   xmlns:dc="http://purl.org/dc/elements/1.1/"
   xmlns:cc="http://creativecommons.org/ns#"
   xmlns:rdf="http://www.w3.org/1999/02/22-rdf-syntax-ns#"
   xmlns:svg="http://www.w3.org/2000/svg"
   xmlns="http://www.w3.org/2000/svg"
   xmlns:sodipodi="http://sodipodi.sourceforge.net/DTD/sodipodi-0.dtd"
   xmlns:inkscape="http://www.inkscape.org/namespaces/inkscape"
   width="48"
   height="48"
   viewBox="0 0 12.7 12.7"
   version="1.1"
   id="svg4"
   sodipodi:docname="applications-mathematics.svg"
   inkscape:version="0.92.4 (5da689c313, 2019-01-14)">
  <metadata
     id="metadata10">
    <rdf:RDF>
      <cc:Work
         rdf:about="">
        <dc:format>image/svg+xml</dc:format>
        <dc:type
           rdf:resource="http://purl.org/dc/dcmitype/StillImage" />
        <dc:title></dc:title>
      </cc:Work>
    </rdf:RDF>
  </metadata>
  <defs
     id="defs8" />
  <sodipodi:namedview
     pagecolor="#ffffff"
     bordercolor="#666666"
     borderopacity="1"
     objecttolerance="10"
     gridtolerance="10"
     guidetolerance="10"
     inkscape:pageopacity="0"
     inkscape:pageshadow="2"
     inkscape:window-width="1087"
     inkscape:window-height="480"
     id="namedview6"
     showgrid="false"
     inkscape:zoom="4.9166667"
     inkscape:cx="2.1355932"
     inkscape:cy="24"
     inkscape:window-x="0"
     inkscape:window-y="25"
     inkscape:window-maximized="0"
     inkscape:current-layer="svg4" />
  <path
     d="M 6.34,0.07 A 6.29,6.29 0 0 0 0.05,6.37 6.29,6.29 0 0 0 6.35,12.65 6.29,6.29 0 0 0 12.63,6.36 6.29,6.29 0 0 0 6.34,0.07 Z M 6.33,1.01 a 5.4,5.4 0 0 1 4.36,2.23 H 10.13 A 1.18,1.14 0 0 0 9,2.4 1.18,1.14 0 0 0 7.86,3.23 H 4.84 A 1.18,1.14 0 0 0 3.7,2.4 1.18,1.14 0 0 0 2.57,3.23 H 1.97 A 5.4,5.4 0 0 1 6.32,1 Z M 1.54,3.9 H 2.58 A 1.18,1.14 0 0 0 3.7,4.7 1.18,1.14 0 0 0 4.83,3.9 H 7.87 A 1.18,1.14 0 0 0 9,4.7 1.18,1.14 0 0 0 10.12,3.9 h 0.99 a 5.4,5.4 0 0 1 0.61,2.14 H 10.14 A 1.18,1.14 0 0 0 9,5.21 1.18,1.14 0 0 0 7.86,6.05 H 7.49 A 1.18,1.14 0 0 0 6.35,5.21 1.18,1.14 0 0 0 5.21,6.05 H 0.94 A 5.4,5.4 0 0 1 1.54,3.9 Z m -0.6,2.8 h 4.3 A 1.18,1.14 0 0 0 6.35,7.48 1.18,1.14 0 0 0 7.47,6.71 h 0.4 A 1.18,1.14 0 0 0 9,7.49 1.18,1.14 0 0 0 10.11,6.72 h 1.6 a 5.4,5.4 0 0 1 -0.5,2.02 H 7.47 A 1.18,1.14 0 0 0 6.34,7.93 1.18,1.14 0 0 0 5.21,8.73 H 4.82 A 1.18,1.14 0 0 0 3.69,7.93 1.18,1.14 0 0 0 2.56,8.73 H 1.45 A 5.4,5.4 0 0 1 0.93,6.72 Z M 1.82,9.4 H 2.58 A 1.18,1.14 0 0 0 3.7,10.2 1.18,1.14 0 0 0 4.83,9.4 h 0.4 a 1.18,1.14 0 0 0 1.12,0.8 1.18,1.14 0 0 0 1.13,-0.8 h 3.35 a 5.4,5.4 0 0 1 -4.5,2.41 5.4,5.4 0 0 1 -4.5,-2.42 z"
     id="path2"
     inkscape:connector-curvature="0"
     style="fill:#5beedc" />
</svg>
